X: 308
%
U:~=!turn!
T: Lady Loudon
C:Wm. Gow
O:Scotland
B:Keith Norman MacDonald : "The Skye collection of the best reels & strathspeys extant" : 1887
Z:Ralph Palmer
R:Strathspey
M:C
L:1/8
K:C
e/f/ | g<c~g>e g>c~g>e | g<c~g>e f<dd(e/f/) | g<c~g>e g<c~g>e | f<a{/a}g>f ecc :|
e | G>cE>c G>ce>c | G>cE>c d<DD>c | G>cE>c G>ce>c | (f/g/a) g>f e<A~A>e |
G>cE>c G>ce>c | G>cE>c d<DDf/g/ | a>fg>e f>de>c | f<a{/a}g>f ecc |]


